html/dist/img/svg/quailities1.svg

<svg width="143" height="141" viewBox="0 0 143 141" fill="none" xmlns="http://www.w3.org/2000/svg">
<path d="M73.4926 97.5933L70.74 100.359C71.5042 99.9927 72.2504 99.5729 72.9734 99.0992C73.129 98.5905 73.3023 98.0883 73.4926 97.5933ZM73.4926 97.5933L86.3954 84.6288M73.4926 97.5933C72.5063 100.158 71.9792 102.918 71.9792 105.753L71.9792 107.284L71.9796 107.43C71.9791 107.503 71.9788 107.576 71.9788 107.65C71.9788 118.852 78.0746 129.265 87.7546 134.823C97.4545 140.392 109.606 140.392 119.306 134.823C123.699 132.301 127.353 128.779 130.035 124.637C128.729 124.254 127.456 123.72 126.242 123.034L125.891 122.836C120.431 119.75 117.052 113.944 117.052 107.65C117.052 107.44 117.056 107.231 117.063 107.023H117.053V105.753C117.053 97.7987 112.899 90.4278 106.111 86.3354C100.093 82.7073 92.8101 82.1385 86.3954 84.6288M86.3954 84.6288L89.2914 81.719C88.9057 82.531 88.4606 83.3229 87.9556 84.0882C87.4308 84.2486 86.9102 84.429 86.3954 84.6288ZM117.414 53.4349L89.8069 25.6959M68.8169 46.7829L26.8763 15.7034C20.6625 11.0987 12.0319 11.7501 6.5724 17.2357C1.1136 22.7206 0.4647 31.391 5.04573 37.6345L35.9724 79.7844L68.8169 46.7829ZM110.529 4.87089C114.339 1.04304 120.516 1.04304 124.325 4.87089L138.136 18.748C141.955 22.5843 141.955 28.8041 138.136 32.6404L42.8582 128.374C39.7221 131.525 35.612 133.51 31.204 134.002L10.046 136.364C8.45291 136.542 7.10678 135.19 7.2838 133.589L9.63468 112.33C10.1245 107.901 12.0999 103.771 15.236 100.62L110.529 4.87089Z" stroke="white" stroke-width="4" stroke-linecap="round" stroke-linejoin="round"/>
</svg>

<svg width="143" height="141" viewBox="0 0 143 141" fill="none" xmlns="http://www.w3.org/2000/svg"><path d="M73.493 97.593l-2.753 2.766c.764-.366 1.51-.786 2.233-1.26a22.7 22.7 0 01.52-1.506zm0 0L86.395 84.63M73.493 97.593a22.718 22.718 0 00-1.514 8.16v1.897c0 11.202 6.096 21.615 15.776 27.173 9.7 5.569 21.851 5.569 31.551 0a31.446 31.446 0 0010.729-10.186 18.007 18.007 0 01-3.793-1.603l-.351-.198c-5.46-3.086-8.839-8.892-8.839-15.186 0-.21.004-.419.011-.627h-.01v-1.27c0-7.954-4.154-15.325-10.942-19.418a22.445 22.445 0 00-19.716-1.706m0 0l2.896-2.91c-.385.812-.83 1.604-1.335 2.37-.525.16-1.046.34-1.56.54zm31.019-31.194l-27.607-27.74m-20.99 21.088l-41.94-31.08a15.555 15.555 0 00-20.305 1.533C1.114 22.72.465 31.39 5.046 37.635l30.926 42.15 32.845-33.002zM110.529 4.87a9.722 9.722 0 0113.796 0l13.811 13.877c3.819 3.836 3.819 10.056 0 13.892l-95.278 95.734a19.495 19.495 0 01-11.654 5.628l-21.158 2.362c-1.593.178-2.94-1.174-2.762-2.775l2.35-21.259a19.664 19.664 0 015.602-11.71l95.293-95.75z" stroke="#fff" stroke-width="4" stroke-linecap="round" stroke-linejoin="round"/></svg>
